(G-CODE GENERATED BY FLATCAM v8.994 - www.flatcam.org - Version Date: 2020/11/7)

(Name: cncd-esp01-board-Edge_Cuts.gbr_cutout_cnc)
(Type: G-code from Geometry)
(Units: MM)

(Created on Wednesday, 15 March 2023 at 11:38)

(This preprocessor is used with a motion controller loaded with GRBL firmware.)
(It is configured to be compatible with almost any version of GRBL firmware.)

(TOOL DIAMETER: 1.8 mm)
(Feedrate_XY: 120.0 mm/min)
(Feedrate_Z: 60.0 mm/min)
(Feedrate rapids 1500.0 mm/min)

(Z_Cut: -0.7 mm)
(Z_Move: 2.0 mm)
(Z Start: None mm)
(Z End: 15.0 mm)
(X,Y End: 0.0000, 0.0000 mm)
(Steps per circle: 64)
(Steps per circle: 64)
(Preprocessor Geometry: grbl)

(X range:   -1.3500 ...   30.3500  mm)
(Y range:  -40.3500 ...    1.3500  mm)

(Spindle Speed: 0.0 RPM)
G21
G90
G17
G94



M05
G00 Z2.0000


G01 F120.00

M03 S20000
G01 F120.00
G00 X12.9000 Y1.3500
G01 F60.00
G01 Z-0.7000
G01 F120.00
G01 X-0.0500 Y1.3500 F120.00
G01 X-0.1774 Y1.3438 F120.00
G01 X-0.3036 Y1.3250 F120.00
G01 X-0.4274 Y1.2940 F120.00
G01 X-0.5475 Y1.2511 F120.00
G01 X-0.6628 Y1.1965 F120.00
G01 X-0.7723 Y1.1309 F120.00
G01 X-0.8747 Y1.0549 F120.00
G01 X-0.9693 Y0.9693 F120.00
G01 X-1.0549 Y0.8747 F120.00
G01 X-1.1309 Y0.7723 F120.00
G01 X-1.1965 Y0.6628 F120.00
G01 X-1.2511 Y0.5475 F120.00
G01 X-1.2940 Y0.4274 F120.00
G01 X-1.3250 Y0.3036 F120.00
G01 X-1.3438 Y0.1774 F120.00
G01 X-1.3500 Y0.0500 F120.00
G01 X-1.3500 Y-17.7000 F120.00
G00 Z2.0000
G00 X16.3000 Y1.3500
G01 F60.00
G01 Z-0.7000
G01 F120.00
G01 X29.0500 Y1.3500 F120.00
G01 X29.1774 Y1.3438 F120.00
G01 X29.3036 Y1.3250 F120.00
G01 X29.4274 Y1.2940 F120.00
G01 X29.5475 Y1.2511 F120.00
G01 X29.6628 Y1.1965 F120.00
G01 X29.7723 Y1.1309 F120.00
G01 X29.8747 Y1.0549 F120.00
G01 X29.9693 Y0.9693 F120.00
G01 X30.0549 Y0.8747 F120.00
G01 X30.1309 Y0.7723 F120.00
G01 X30.1965 Y0.6628 F120.00
G01 X30.2511 Y0.5475 F120.00
G01 X30.2940 Y0.4274 F120.00
G01 X30.3250 Y0.3036 F120.00
G01 X30.3438 Y0.1774 F120.00
G01 X30.3500 Y0.0500 F120.00
G01 X30.3500 Y-17.7000 F120.00
G00 Z2.0000
G00 X30.3500 Y-21.1000
G01 F60.00
G01 Z-0.7000
G01 F120.00
G01 X30.3500 Y-39.0500 F120.00
G01 X30.3438 Y-39.1774 F120.00
G01 X30.3250 Y-39.3036 F120.00
G01 X30.2940 Y-39.4274 F120.00
G01 X30.2511 Y-39.5475 F120.00
G01 X30.1965 Y-39.6628 F120.00
G01 X30.1309 Y-39.7723 F120.00
G01 X30.0549 Y-39.8747 F120.00
G01 X29.9693 Y-39.9693 F120.00
G01 X29.8747 Y-40.0549 F120.00
G01 X29.7723 Y-40.1309 F120.00
G01 X29.6628 Y-40.1965 F120.00
G01 X29.5475 Y-40.2511 F120.00
G01 X29.4274 Y-40.2940 F120.00
G01 X29.3036 Y-40.3250 F120.00
G01 X29.1774 Y-40.3438 F120.00
G01 X29.0500 Y-40.3500 F120.00
G01 X16.3000 Y-40.3500 F120.00
G00 Z2.0000
G00 X12.9000 Y-40.3500
G01 F60.00
G01 Z-0.7000
G01 F120.00
G01 X-0.0500 Y-40.3500 F120.00
G01 X-0.1774 Y-40.3438 F120.00
G01 X-0.3036 Y-40.3250 F120.00
G01 X-0.4274 Y-40.2940 F120.00
G01 X-0.5475 Y-40.2511 F120.00
G01 X-0.6628 Y-40.1965 F120.00
G01 X-0.7723 Y-40.1309 F120.00
G01 X-0.8747 Y-40.0549 F120.00
G01 X-0.9693 Y-39.9693 F120.00
G01 X-1.0549 Y-39.8747 F120.00
G01 X-1.1309 Y-39.7723 F120.00
G01 X-1.1965 Y-39.6628 F120.00
G01 X-1.2511 Y-39.5475 F120.00
G01 X-1.2940 Y-39.4274 F120.00
G01 X-1.3250 Y-39.3036 F120.00
G01 X-1.3438 Y-39.1774 F120.00
G01 X-1.3500 Y-39.0500 F120.00
G01 X-1.3500 Y-21.1000 F120.00
G00 Z2.0000
M05
G00 Z2.0000
G00 Z15.00
G00 X0.0 Y0.0


