(G-CODE GENERATED BY FLATCAM v8.994 - www.flatcam.org - Version Date: 2020/11/7)

(Name: cncd-esp01-board-PTH.drl_cnc)
(Type: G-code from Geometry)
(Units: MM)

(Created on Wednesday, 15 March 2023 at 11:17)

(This preprocessor is used with a motion controller loaded with GRBL firmware.)
(It is configured to be compatible with almost any version of GRBL firmware.)


(TOOLS DIAMETER: )
(Tool: 1 -> Dia: 0.5003799999999999)
(Tool: 2 -> Dia: 1.0007599999999999)

(FEEDRATE Z: )
(Tool: 1 -> Feedrate: 60.0)
(Tool: 2 -> Feedrate: 60.0)

(FEEDRATE RAPIDS: )
(Tool: 1 -> Feedrate Rapids: 1500)
(Tool: 2 -> Feedrate Rapids: 1500)

(Z_CUT: )
(Tool: 1 -> Z_Cut: -0.7)
(Tool: 2 -> Z_Cut: -0.7)

(Tools Offset: )
(Tool: 1 -> Offset Z: 0.0)

(Z_MOVE: )
(Tool: 1 -> Z_Move: 2)
(Tool: 2 -> Z_Move: 2)

(Z Toolchange: 15 mm)
(X,Y Toolchange: 0.0000, 0.0000 mm)
(Z Start: None mm)
(Z End: 5.0 mm)
(X,Y End: 0.0000, 0.0000 mm)
(Steps per circle: 64)
(Steps per circle: 64)
(Preprocessor Excellon: default)

(X range:    3.7503 ...   25.2514  mm)
(Y range:  -35.9334 ...   -3.2487  mm)

(Spindle Speed: 20000 RPM)
G21
G90
G17
G94



M05
G00 Z2.0000


G01 F60.00

G01 F60.00
M03 S20000
G00 X4.0005 Y-28.4988
G01 Z-0.7000
G01 Z0
G00 Z2.0000
G00 X7.0002 Y-31.5011
G01 Z-0.7000
G01 Z0
G00 Z2.0000
G00 X13.7160 Y-30.2260
G01 Z-0.7000
G01 Z0
G00 Z2.0000
G00 X16.2560 Y-30.2260
G01 Z-0.7000
G01 Z0
G00 Z2.0000
G00 X19.8120 Y-22.6060
G01 Z-0.7000
G01 Z0
G00 Z2.0000
G00 X25.0012 Y-8.4988
G01 Z-0.7000
G01 Z0
G00 Z2.0000
G00 X10.5004 Y-8.7503
G01 Z-0.7000
G01 Z0
G00 Z2.0000
G00 X8.0010 Y-6.7488
G01 Z-0.7000
G01 Z0
G00 Z2.0000
G00 X8.4988 Y-11.9990
G01 Z-0.7000
G01 Z0
G00 Z2.0000
G00 X14.0005 Y-17.0002
G01 Z-0.7000
G01 Z0
G00 Z2.0000
G00 X11.6840 Y-18.5420
G01 Z-0.7000
G01 Z0
G00 Z2.0000
G00 X11.6840 Y-19.8120
G01 Z-0.7000
G01 Z0
G00 Z2.0000
M05
G00 Z5.00
G00 X0.0 Y0.0


