(G-CODE GENERATED BY FLATCAM v8.994 - www.flatcam.org - Version Date: 2020/11/7)

(Name: cncd-esp01-board-NPTH.drl_mill_cnc)
(Type: G-code from Geometry)
(Units: MM)

(Created on Wednesday, 15 March 2023 at 11:39)

(This preprocessor is used with a motion controller loaded with GRBL firmware.)
(It is configured to be compatible with almost any version of GRBL firmware.)

(TOOL DIAMETER: 1.8 mm)
(Feedrate_XY: 120.0 mm/min)
(Feedrate_Z: 60.0 mm/min)
(Feedrate rapids 1500.0 mm/min)

(Z_Cut: -0.7 mm)
(Z_Move: 2.0 mm)
(Z Start: None mm)
(Z End: 15.0 mm)
(X,Y End: 0.0000, 0.0000 mm)
(Steps per circle: 64)
(Steps per circle: 64)
(Preprocessor Geometry: default)

(X range:    2.2999 ...   26.6993  mm)
(Y range:  -35.7010 ...   -4.3014  mm)

(Spindle Speed: 0.0 RPM)
G21
G90
G17
G94



M05
G00 Z2.0000


G01 F120.00

M03 S20000
G01 F120.00
G00 X26.6993 Y-5.0013
G01 F60.00
G01 Z-0.7000
G01 F120.00
G01 X26.6959 Y-5.0699 F120.00
G01 X26.6858 Y-5.1378 F120.00
G01 X26.6691 Y-5.2044 F120.00
G01 X26.6460 Y-5.2691 F120.00
G01 X26.6166 Y-5.3312 F120.00
G01 X26.5813 Y-5.3901 F120.00
G01 X26.5404 Y-5.4452 F120.00
G01 X26.4943 Y-5.4961 F120.00
G01 X26.4434 Y-5.5422 F120.00
G01 X26.3882 Y-5.5831 F120.00
G01 X26.3293 Y-5.6184 F120.00
G01 X26.2672 Y-5.6478 F120.00
G01 X26.2026 Y-5.6709 F120.00
G01 X26.1360 Y-5.6876 F120.00
G01 X26.0680 Y-5.6977 F120.00
G01 X25.9994 Y-5.7011 F120.00
G01 X25.9308 Y-5.6977 F120.00
G01 X25.8629 Y-5.6876 F120.00
G01 X25.7963 Y-5.6709 F120.00
G01 X25.7316 Y-5.6478 F120.00
G01 X25.6695 Y-5.6184 F120.00
G01 X25.6106 Y-5.5831 F120.00
G01 X25.5555 Y-5.5422 F120.00
G01 X25.5046 Y-5.4961 F120.00
G01 X25.4585 Y-5.4452 F120.00
G01 X25.4176 Y-5.3901 F120.00
G01 X25.3823 Y-5.3312 F120.00
G01 X25.3529 Y-5.2691 F120.00
G01 X25.3298 Y-5.2044 F120.00
G01 X25.3131 Y-5.1378 F120.00
G01 X25.3030 Y-5.0699 F120.00
G01 X25.2996 Y-5.0013 F120.00
G01 X25.3030 Y-4.9327 F120.00
G01 X25.3131 Y-4.8647 F120.00
G01 X25.3298 Y-4.7981 F120.00
G01 X25.3529 Y-4.7335 F120.00
G01 X25.3823 Y-4.6714 F120.00
G01 X25.4176 Y-4.6125 F120.00
G01 X25.4585 Y-4.5573 F120.00
G01 X25.5046 Y-4.5064 F120.00
G01 X25.5555 Y-4.4603 F120.00
G01 X25.6106 Y-4.4194 F120.00
G01 X25.6695 Y-4.3841 F120.00
G01 X25.7316 Y-4.3547 F120.00
G01 X25.7963 Y-4.3316 F120.00
G01 X25.8629 Y-4.3149 F120.00
G01 X25.9308 Y-4.3048 F120.00
G01 X25.9994 Y-4.3014 F120.00
G01 X26.0680 Y-4.3048 F120.00
G01 X26.1360 Y-4.3149 F120.00
G01 X26.2026 Y-4.3316 F120.00
G01 X26.2672 Y-4.3547 F120.00
G01 X26.3293 Y-4.3841 F120.00
G01 X26.3882 Y-4.4194 F120.00
G01 X26.4434 Y-4.4603 F120.00
G01 X26.4943 Y-4.5064 F120.00
G01 X26.5404 Y-4.5573 F120.00
G01 X26.5813 Y-4.6125 F120.00
G01 X26.6166 Y-4.6714 F120.00
G01 X26.6460 Y-4.7335 F120.00
G01 X26.6691 Y-4.7981 F120.00
G01 X26.6858 Y-4.8647 F120.00
G01 X26.6959 Y-4.9327 F120.00
G01 X26.6993 Y-5.0013 F120.00
G00 Z2.0000
G00 X3.6996 Y-35.0012
G01 F60.00
G01 Z-0.7000
G01 F120.00
G01 X3.6962 Y-35.0698 F120.00
G01 X3.6861 Y-35.1377 F120.00
G01 X3.6694 Y-35.2043 F120.00
G01 X3.6463 Y-35.2690 F120.00
G01 X3.6169 Y-35.3311 F120.00
G01 X3.5816 Y-35.3900 F120.00
G01 X3.5407 Y-35.4452 F120.00
G01 X3.4946 Y-35.4960 F120.00
G01 X3.4437 Y-35.5422 F120.00
G01 X3.3885 Y-35.5831 F120.00
G01 X3.3296 Y-35.6184 F120.00
G01 X3.2675 Y-35.6477 F120.00
G01 X3.2029 Y-35.6709 F120.00
G01 X3.1363 Y-35.6876 F120.00
G01 X3.0683 Y-35.6977 F120.00
G01 X2.9997 Y-35.7010 F120.00
G01 X2.9311 Y-35.6977 F120.00
G01 X2.8632 Y-35.6876 F120.00
G01 X2.7966 Y-35.6709 F120.00
G01 X2.7319 Y-35.6477 F120.00
G01 X2.6698 Y-35.6184 F120.00
G01 X2.6109 Y-35.5831 F120.00
G01 X2.5558 Y-35.5422 F120.00
G01 X2.5049 Y-35.4960 F120.00
G01 X2.4588 Y-35.4452 F120.00
G01 X2.4179 Y-35.3900 F120.00
G01 X2.3826 Y-35.3311 F120.00
G01 X2.3532 Y-35.2690 F120.00
G01 X2.3301 Y-35.2043 F120.00
G01 X2.3134 Y-35.1377 F120.00
G01 X2.3033 Y-35.0698 F120.00
G01 X2.2999 Y-35.0012 F120.00
G01 X2.3033 Y-34.9326 F120.00
G01 X2.3134 Y-34.8647 F120.00
G01 X2.3301 Y-34.7981 F120.00
G01 X2.3532 Y-34.7334 F120.00
G01 X2.3826 Y-34.6713 F120.00
G01 X2.4179 Y-34.6124 F120.00
G01 X2.4588 Y-34.5572 F120.00
G01 X2.5049 Y-34.5064 F120.00
G01 X2.5558 Y-34.4602 F120.00
G01 X2.6109 Y-34.4193 F120.00
G01 X2.6698 Y-34.3840 F120.00
G01 X2.7319 Y-34.3547 F120.00
G01 X2.7966 Y-34.3315 F120.00
G01 X2.8632 Y-34.3148 F120.00
G01 X2.9311 Y-34.3047 F120.00
G01 X2.9997 Y-34.3014 F120.00
G01 X3.0683 Y-34.3047 F120.00
G01 X3.1363 Y-34.3148 F120.00
G01 X3.2029 Y-34.3315 F120.00
G01 X3.2675 Y-34.3547 F120.00
G01 X3.3296 Y-34.3840 F120.00
G01 X3.3885 Y-34.4193 F120.00
G01 X3.4437 Y-34.4602 F120.00
G01 X3.4946 Y-34.5064 F120.00
G01 X3.5407 Y-34.5572 F120.00
G01 X3.5816 Y-34.6124 F120.00
G01 X3.6169 Y-34.6713 F120.00
G01 X3.6463 Y-34.7334 F120.00
G01 X3.6694 Y-34.7981 F120.00
G01 X3.6861 Y-34.8647 F120.00
G01 X3.6962 Y-34.9326 F120.00
G01 X3.6996 Y-35.0012 F120.00
G00 Z2.0000
M05
G00 Z2.0000
G00 Z15.00
G00 X0.0 Y0.0


